img/header-collection/shop-bag-mobile.svg

<svg width="56" height="56" viewBox="0 0 56 56" fill="none" xmlns="http://www.w3.org/2000/svg">
<circle cx="28" cy="28" r="28" fill="white"/>
<path d="M28.3233 10.0003C24.7548 9.9607 21.8038 13.4877 21.8038 17.6091V18.7187H18.3725C17.6176 18.7187 17 19.432 17 20.3038V38.0179C17 41.9412 19.7794 45.1511 23.1764 45.1511H33.2301C36.6271 45.1511 39.4065 41.9412 39.4065 38.0179V20.2642C39.4065 19.3924 38.7889 18.679 38.034 18.679H34.6027V17.3713C34.637 13.2895 31.8233 10.04 28.3233 10.0003ZM24.5489 17.3317C24.5489 14.9936 26.1959 13.0914 28.2204 13.0914C30.2449 13.0914 31.8919 14.9936 31.8919 17.3317V18.6394H24.5489V17.3317Z" fill="#25394E"/>
<circle cx="35" cy="39" r="9" fill="#FFD32E"/>
<path d="M36.37 44V35.6H35.014C34.966 35.92 34.866 36.188 34.714 36.404C34.562 36.62 34.374 36.796 34.15 36.932C33.934 37.06 33.686 37.152 33.406 37.208C33.134 37.256 32.85 37.276 32.554 37.268V38.552H34.666V44H36.37Z" fill="white"/>
</svg>

<svg width="56" height="56" fill="none" xmlns="http://www.w3.org/2000/svg"><circle cx="28" cy="28" r="28" fill="#fff"/><path d="M28.323 10c-3.568-.04-6.52 3.488-6.52 7.61v1.109h-3.43c-.755 0-1.373.713-1.373 1.585v17.714c0 3.923 2.78 7.133 6.176 7.133H33.23c3.397 0 6.177-3.21 6.177-7.133V20.264c0-.872-.618-1.585-1.373-1.585h-3.431v-1.308c.034-4.081-2.78-7.331-6.28-7.37zm-3.774 7.332c0-2.338 1.647-4.24 3.671-4.24 2.025 0 3.672 1.902 3.672 4.24v1.307h-7.343v-1.307z" fill="#25394E"/><circle cx="35" cy="39" r="9" fill="#FFD32E"/><path d="M36.37 44v-8.4h-1.356c-.048.32-.148.588-.3.804a1.87 1.87 0 01-.564.528c-.216.128-.464.22-.744.276a4.235 4.235 0 01-.852.06v1.284h2.112V44h1.704z" fill="#fff"/></svg>
